static/logos/discourse-glyph-color.svg

<svg width="50" height="51" viewBox="0 0 50 51" fill="none" xmlns="http://www.w3.org/2000/svg">
<g clip-path="url(#clip0_1_3010)">
<path d="M25.1796 0C11.5097 0 0 11.0825 0 24.7573V50.3932L25.1748 50.3689C38.8447 50.3689 49.932 38.8592 49.932 25.1893C49.932 11.5194 38.8349 0 25.1796 0Z" fill="black"/>
<path d="M25.4232 9.58264C20.0164 9.58585 15.0101 12.4334 12.2438 17.079C9.47761 21.7246 9.3595 27.4829 11.9329 32.238L9.15625 41.17L19.1271 38.9176C24.8368 41.4901 31.5369 40.3347 36.0552 35.9985C40.5736 31.6623 42.0035 25.0154 39.668 19.2047C37.3325 13.394 31.7003 9.5857 25.4378 9.58264H25.4232Z" fill="#FFF9AE"/>
<path d="M37.422 34.4243C33.0634 39.9226 25.5298 41.7629 19.1271 38.8933L9.15625 41.1748L19.3067 39.9758C26.0358 43.9176 34.6515 42.1833 39.3312 35.9448C44.011 29.7064 43.2653 20.9496 37.598 15.5923C41.853 21.1712 41.7806 28.9259 37.422 34.4243Z" fill="#00AEEF"/>
<path d="M36.5636 31.5091C32.803 37.4323 25.503 40.0492 18.8359 37.864L9.15625 41.1747L19.1271 38.9174C26.2283 42.1251 34.6062 39.4994 38.6063 32.8124C42.6063 26.1253 40.9576 17.5018 34.7728 12.7621C39.5867 17.8662 40.3242 25.5859 36.5636 31.5091Z" fill="#00A94F"/>
<path d="M12.8504 32.5775C10.0714 25.8789 12.3616 18.1493 18.3412 14.0457C24.3207 9.94211 32.3567 10.5851 37.6077 15.5872C32.7445 9.20516 23.7855 7.64735 17.0534 12.0132C10.3214 16.3791 8.0895 25.1943 11.9329 32.2377L9.15625 41.1698L12.8504 32.5775Z" fill="#F15D22"/>
<path d="M11.929 32.2378C8.48081 25.8686 9.95562 17.9556 15.4667 13.2562C20.9778 8.55688 29.0244 8.35086 34.7688 12.7621C29.2585 6.95989 20.2145 6.3661 13.9928 11.398C7.7712 16.43 6.46071 25.3981 10.9824 31.9999L9.15717 41.1747L11.929 32.2378Z" fill="#D0232B"/>
</g>
<defs>
<clipPath id="clip0_1_3010">
<rect width="50" height="50.4854" fill="white"/>
</clipPath>
</defs>
</svg>

<svg xmlns="http://www.w3.org/2000/svg" width="62.745" height="64" fill="none" viewBox="0 0 50 51"><g clip-path="url(#a)"><path fill="#000" d="M25.18 0C11.51 0 0 11.082 0 24.757v25.636l25.175-.024c13.67 0 24.757-11.51 24.757-25.18S38.835 0 25.18 0Z"/><path fill="#FFF9AE" d="M25.423 9.583a15.35 15.35 0 0 0-13.49 22.655L9.156 41.17l9.971-2.252a15.345 15.345 0 1 0 6.31-29.335h-.014Z"/><path fill="#00AEEF" d="M37.422 34.424a15.34 15.34 0 0 1-18.295 4.47l-9.97 2.28 10.15-1.198c6.729 3.942 15.345 2.207 20.024-4.031 4.68-6.239 3.934-14.995-1.733-20.353a15.34 15.34 0 0 1-.176 18.832Z"/><path fill="#00A94F" d="M36.564 31.51a15.34 15.34 0 0 1-17.728 6.354l-9.68 3.31 9.971-2.257c7.101 3.208 15.48.582 19.48-6.105s2.35-15.31-3.834-20.05a15.34 15.34 0 0 1 1.79 18.747Z"/><path fill="#F15D22" d="M12.85 32.578a15.345 15.345 0 0 1 24.758-16.99c-4.863-6.383-13.822-7.94-20.555-3.575-6.732 4.366-8.964 13.181-5.12 20.225L9.156 41.17l3.694-8.593Z"/><path fill="#D0232B" d="M11.929 32.238a15.345 15.345 0 0 1 22.84-19.476c-5.51-5.802-14.554-6.396-20.776-1.364-6.222 5.032-7.532 14-3.01 20.602l-1.826 9.175 2.772-8.937Z"/></g><defs><clipPath id="a"><path fill="#fff" d="M0 0h50v50.485H0z"/></clipPath></defs></svg>
